icons/archive-cross.svg

<svg width="24" height="24" viewBox="0 0 24 24" fill="none" xmlns="http://www.w3.org/2000/svg">
<path fill-rule="evenodd" clip-rule="evenodd" d="M5.5 4.19995C4.51421 4.19995 3.75 4.96416 3.75 5.94995C3.75 6.93574 4.51421 7.69995 5.5 7.69995H18.5C18.5458 7.69995 18.5918 7.69761 18.638 7.69298C18.7453 7.63371 18.8687 7.59998 19 7.59998C19.0095 7.59998 19.0189 7.60015 19.0284 7.6005C19.2717 7.50955 19.5058 7.35852 19.7072 7.15712C20.0528 6.81154 20.25 6.36981 20.25 5.94995C20.25 4.96416 19.4858 4.19995 18.5 4.19995H5.5ZM19.75 8.92465C20.1332 8.75162 20.479 8.50666 20.7678 8.21778C21.3472 7.63836 21.75 6.83009 21.75 5.94995C21.75 4.13574 20.3142 2.69995 18.5 2.69995H5.5C3.68579 2.69995 2.25 4.13574 2.25 5.94995C2.25 7.31959 3.06832 8.47354 4.25 8.95685V16.45C4.25 18.5642 5.88579 20.2 8 20.2H12C12.4142 20.2 12.75 19.8642 12.75 19.45C12.75 19.0357 12.4142 18.7 12 18.7H8C6.71421 18.7 5.75 17.7357 5.75 16.45V9.19995H18.25V13.45C18.25 13.8642 18.5858 14.2 19 14.2C19.4142 14.2 19.75 13.8642 19.75 13.45V8.92465ZM19.6303 15.7196C19.9232 16.0125 19.9232 16.4874 19.6303 16.7803L18.0106 18.4L19.6303 20.0197C19.9232 20.3126 19.9232 20.7874 19.6303 21.0803C19.3374 21.3732 18.8625 21.3732 18.5696 21.0803L16.95 19.4606L15.3303 21.0803C15.0374 21.3732 14.5626 21.3732 14.2697 21.0803C13.9768 20.7874 13.9768 20.3126 14.2697 20.0197L15.8893 18.4L14.2697 16.7803C13.9768 16.4874 13.9768 16.0125 14.2697 15.7196C14.5626 15.4267 15.0374 15.4267 15.3303 15.7196L16.95 17.3393L18.5696 15.7196C18.8625 15.4267 19.3374 15.4267 19.6303 15.7196Z" fill="black"/>
</svg>

<svg xmlns="http://www.w3.org/2000/svg" fill="none" viewBox="0 0 24 24">
  <path fill="#000" fill-rule="evenodd" d="M5.5 4.2c-.986 0-1.75.764-1.75 1.75S4.514 7.7 5.5 7.7h13c.046 0 .092-.002.138-.007a.746.746 0 0 1 .39-.092 1.92 1.92 0 0 0 .68-.444c.345-.345.542-.787.542-1.207 0-.986-.764-1.75-1.75-1.75h-13Zm14.25 4.725a3.463 3.463 0 0 0 1.018-.707c.58-.58.982-1.388.982-2.268A3.226 3.226 0 0 0 18.5 2.7h-13a3.226 3.226 0 0 0-3.25 3.25c0 1.37.818 2.524 2 3.007v7.493c0 2.114 1.636 3.75 3.75 3.75h4a.75.75 0 0 0 0-1.5H8c-1.286 0-2.25-.964-2.25-2.25V9.2h12.5v4.25a.75.75 0 0 0 1.5 0V8.925Zm-.12 6.795a.75.75 0 0 1 0 1.06l-1.62 1.62 1.62 1.62a.75.75 0 1 1-1.06 1.06l-1.62-1.62-1.62 1.62a.75.75 0 1 1-1.06-1.06l1.62-1.62-1.62-1.62a.75.75 0 0 1 1.06-1.06l1.62 1.62 1.62-1.62a.75.75 0 0 1 1.06 0Z" clip-rule="evenodd"/>
</svg>
